X: 182124
T: Rushy Glen (The)
C: Joe Liddy
Z: BB
S: "The Leitrim Fiddler" (Dublin 1981)
L: 1/8
M: 4/4
R: reel
Q: 1/4 = 180
K: G
dc | BG (3AGF DEFD | BGAF GABc | d2 ge fdcB | AFcF DFAc |
BGAF GFDF | GABc defd | gfdc BGBc | dG AF G2 :|
Bc | d2 gf dcBc | dGAF GABc | d2 fg fdcA | AFcF DFAc |
dg (3agf dcBc | dGBc defd | gfdc BGBd | dGAF G2 ||
ef | g2 gf dcBc | dGAF GABc | defg fdcB | AFcF DFAc |
dg (3agf dcBc | dGBc defg | bg (3agf dcBc | dGAF G4 ||
%%%%%%%%%%%%%%%%%%%%%%%%
